picto/car-left.svg

<svg class="color-immutable" width="24" height="24" viewBox="0 0 24 24" fill="none" xmlns="http://www.w3.org/2000/svg"><g clip-path="url(#a)"><path d="M0 22.5v-21C0 .675.675 0 1.5 0h21c.825 0 1.5.675 1.5 1.5v21c0 .825-.675 1.5-1.5 1.5h-21C.675 24 0 23.325 0 22.5Z" fill="#2D327D"/><path d="M18.42 13.736a1.125 1.125 0 0 0-.796-.329H11.14c-.298 0-.584.118-.795.329L7.731 16.35l-4.387.364a.374.374 0 0 0-.344.373v2.338c0 .207.168.375.375.375h.412v-.431a2.25 2.25 0 0 1 4.5 0v.431h7.463v-.431a2.25 2.25 0 0 1 4.5 0v.431h.375a.375.375 0 0 0 .375-.375v-2.644c0-.298-.119-.585-.33-.796l-2.25-2.249Zm-4.505.758-.002 1.538a.374.374 0 0 1-.375.374H9.279a.225.225 0 0 1-.159-.384l1.793-1.794c.07-.07.166-.11.265-.11h2.362a.377.377 0 0 1 .375.376Zm5.572 1.912h-4.485a.375.375 0 0 1-.375-.375v-1.537c0-.207.168-.375.375-.375h2.585c.099 0 .195.04.265.11l1.793 1.794a.225.225 0 0 1-.158.383Z" fill="#fff"/><path fill-rule="evenodd" clip-rule="evenodd" d="M18.016 20.336a.937.937 0 1 1 0-1.874.937.937 0 0 1 0 1.874Zm-.021-2.658a1.707 1.707 0 1 0 .002 3.414 1.707 1.707 0 0 0-.002-3.414ZM6.039 20.336a.938.938 0 1 1 .001-1.875.938.938 0 0 1-.001 1.875Zm0-2.644a1.707 1.707 0 1 0 .002 3.414 1.707 1.707 0 0 0-.002-3.414Z" fill="#fff"/></g><defs><clipPath id="a"><path fill="#fff" d="M0 0h24v24H0z"/></clipPath></defs></svg>

<svg class="color-immutable" width="24" height="24" viewBox="0 0 24 24" fill="none" xmlns="http://www.w3.org/2000/svg"><path d="M0 22.5V1.5C0 0.675 0.675 0 1.5 0H22.5C23.325 0 24 0.675 24 1.5V22.5C24 23.325 23.325 24 22.5 24H1.5C0.675 24 0 23.325 0 22.5Z" fill="#2D327D"/><path d="M18.42 13.736C18.209 13.525 17.923 13.407 17.624 13.407H11.14C10.842 13.407 10.556 13.525 10.345 13.736L7.731 16.35L3.344 16.714C3.149 16.73 3 16.892 3 17.087V19.425C3 19.632 3.168 19.8 3.375 19.8H3.787V19.369C3.787 18.127 4.795 17.119 6.037 17.119C7.279 17.119 8.287 18.127 8.287 19.369V19.8H15.75V19.369C15.75 18.127 16.758 17.119 18 17.119C19.242 17.119 20.25 18.127 20.25 19.369V19.8H20.625C20.832 19.8 21 19.632 21 19.425V16.781C21 16.483 20.881 16.196 20.67 15.985L18.42 13.736ZM13.915 14.494L13.913 16.032C13.913 16.239 13.745 16.406 13.538 16.406H9.279C9.155 16.406 9.054 16.305 9.054 16.181C9.054 16.121 9.078 16.064 9.12 16.022L10.913 14.228C10.983 14.158 11.079 14.118 11.178 14.118H13.54C13.747 14.119 13.915 14.287 13.915 14.494ZM19.487 16.406H15.002C14.795 16.406 14.627 16.238 14.627 16.031V14.494C14.627 14.287 14.795 14.119 15.002 14.119H17.587C17.686 14.119 17.782 14.159 17.852 14.229L19.645 16.023C19.687 16.065 19.711 16.122 19.711 16.182C19.712 16.305 19.611 16.406 19.487 16.406Z" fill="white"/><path fill-rule="evenodd" clip-rule="evenodd" d="M18.016 20.336C17.498 20.336 17.079 19.916 17.079 19.399C17.079 18.881 17.499 18.462 18.016 18.462C18.534 18.462 18.953 18.882 18.953 19.399C18.954 19.916 18.534 20.336 18.016 20.336ZM17.995 17.678C17.053 17.678 16.289 18.443 16.289 19.384C16.289 20.326 17.054 21.09 17.995 21.09C18.937 21.09 19.701 20.326 19.701 19.384C19.702 18.443 18.937 17.678 17.995 17.678Z" fill="white"/><path fill-rule="evenodd" clip-rule="evenodd" d="M6.03901 20.336C5.52201 20.336 5.10201 19.916 5.10201 19.399C5.10201 18.881 5.52201 18.462 6.03901 18.462C6.55701 18.462 6.97701 18.882 6.97701 19.399C6.97701 19.916 6.55701 20.336 6.03901 20.336ZM6.03901 17.692C5.09701 17.692 4.33301 18.457 4.33301 19.398C4.33301 20.34 5.09701 21.104 6.03901 21.104C6.98101 21.104 7.74501 20.34 7.74501 19.398C7.74501 18.457 6.98101 17.692 6.03901 17.692Z" fill="white"/></svg>
